!!!OTL: 599a. Jaegerglueck.
!!!COM: K. M. Kunz
!!!ARE: Europa, Mitteleuropa, Deutschland
!!!SCT: B0599
!!!TXL: @@DE
!!!YEM: Copyright 1995, estate of Helmut Schaffrath.
**kern	**text
*ICvox	*
*Ivox	*
*clefG2	*
*M2/4	*
*k[f#]	*
*G:	*
=1	=1
!LO:TX:a:t=Ʒielmich langsam.	!
{8b	Ei-
8b	-nem,
8a	der
8a	einſt
=2	=2
8.g	auf
16f#	der
4f#}	Jagd
=3	=3
{8e	ſtell-
8f#	-te
8g	Vo-
16f#L	-gel-
16eJ	.
=4	=4
4e	-rei-
4d}	-ſer,
=5	=5
{8d	hat
[16d	man
16d]	.
8g	Kron'
8b	und
=6	=6
8dd	Scep-
(16b	-ter
16cc)	ge-
4dd}	-bracht,
=7	=7
{8dd	und
8a	er
8a	ward
16bL	ein
16ccJ	.
=8	=8
4cc	Kai-
4b}	-ſer
=9	=9
{8d	hat
[16d	man
16d]	.
8g	Kron'
8b	und
=10	=10
8dd	Scep-
(16b	-ter
16cc)	ge-
4dd}	-bracht,
=11	=11
{8dd	und
8a	er
8cc	ward
16bL	ein
16aJ	.
=12	=12
4a	Kai-
4g}	-ſer.
==	==
!!!AGN: Staende -, Jaeger - Lied
!!!GTL: Jägerlieder
!!!ONB: ESAC (Essen Associative Code) Database: BOEHME
!!!AMT: simple duple
!!!AIN: vox
!!!EED: Helmut Schaffrath
!!!EEV: 1.0
!!@@COMMENT:"Gedicht von Fr. Rückert in deſſen "Geſ. Gedichten" 1834 38. Die kleinen Auftakmoten
!!werden ʒu Str. 3 gebraucht."
!!@@END:
!!!Text: F. Rückert
!!!URL-scan: https://archive.org/details/BoehmeVtLieder1895/page/n475/mode/2up
!!!ENC: Anna Maria Matuszewska
!!!EEV: 2024/15/07
*-	*-
